images/50241437.svg

<?xml version="1.0" encoding="UTF-8"?>
<svg xmlns="http://www.w3.org/2000/svg" xmlns:xlink="http://www.w3.org/1999/xlink" width="300pt" height="300pt" viewBox="0 0 300 300" version="1.1">
<defs>
<g>
<symbol overflow="visible" id="glyph0-0">
<path style="stroke:none;" d="M 0.59375 2.125 L 0.59375 -8.46875 L 6.59375 -8.46875 L 6.59375 2.125 Z M 1.265625 1.453125 L 5.9375 1.453125 L 5.9375 -7.78125 L 1.265625 -7.78125 Z M 1.265625 1.453125 "/>
</symbol>
<symbol overflow="visible" id="glyph0-1">
<path style="stroke:none;" d="M 7.734375 -8.078125 L 7.734375 -6.828125 C 7.328125 -7.203125 6.898438 -7.476562 6.453125 -7.65625 C 6.003906 -7.84375 5.523438 -7.9375 5.015625 -7.9375 C 4.015625 -7.9375 3.25 -7.628906 2.71875 -7.015625 C 2.1875 -6.398438 1.921875 -5.515625 1.921875 -4.359375 C 1.921875 -3.210938 2.1875 -2.332031 2.71875 -1.71875 C 3.25 -1.101562 4.015625 -0.796875 5.015625 -0.796875 C 5.523438 -0.796875 6.003906 -0.890625 6.453125 -1.078125 C 6.898438 -1.265625 7.328125 -1.539062 7.734375 -1.90625 L 7.734375 -0.671875 C 7.316406 -0.390625 6.875 -0.175781 6.40625 -0.03125 C 5.945312 0.101562 5.460938 0.171875 4.953125 0.171875 C 3.617188 0.171875 2.570312 -0.234375 1.8125 -1.046875 C 1.050781 -1.859375 0.671875 -2.960938 0.671875 -4.359375 C 0.671875 -5.765625 1.050781 -6.875 1.8125 -7.6875 C 2.570312 -8.5 3.617188 -8.90625 4.953125 -8.90625 C 5.472656 -8.90625 5.960938 -8.832031 6.421875 -8.6875 C 6.890625 -8.550781 7.328125 -8.347656 7.734375 -8.078125 Z M 7.734375 -8.078125 "/>
</symbol>
<symbol overflow="visible" id="glyph0-2">
<path style="stroke:none;" d="M 1.125 -9.125 L 2.203125 -9.125 L 2.203125 0 L 1.125 0 Z M 1.125 -9.125 "/>
</symbol>
<symbol overflow="visible" id="glyph0-3">
<path style="stroke:none;" d="M 1.171875 -8.75 L 2.765625 -8.75 L 6.65625 -1.4375 L 6.65625 -8.75 L 7.796875 -8.75 L 7.796875 0 L 6.203125 0 L 2.328125 -7.3125 L 2.328125 0 L 1.171875 0 Z M 1.171875 -8.75 "/>
</symbol>
<symbol overflow="visible" id="glyph0-4">
<path style="stroke:none;" d="M 1.171875 -8.75 L 2.359375 -8.75 L 2.359375 -5.15625 L 6.65625 -5.15625 L 6.65625 -8.75 L 7.84375 -8.75 L 7.84375 0 L 6.65625 0 L 6.65625 -4.171875 L 2.359375 -4.171875 L 2.359375 0 L 1.171875 0 Z M 1.171875 -8.75 "/>
</symbol>
<symbol overflow="visible" id="glyph0-5">
<path style="stroke:none;" d="M 4.734375 -7.953125 C 3.867188 -7.953125 3.179688 -7.628906 2.671875 -6.984375 C 2.171875 -6.347656 1.921875 -5.472656 1.921875 -4.359375 C 1.921875 -3.265625 2.171875 -2.394531 2.671875 -1.75 C 3.179688 -1.113281 3.867188 -0.796875 4.734375 -0.796875 C 5.585938 -0.796875 6.265625 -1.113281 6.765625 -1.75 C 7.273438 -2.394531 7.53125 -3.265625 7.53125 -4.359375 C 7.53125 -5.472656 7.273438 -6.347656 6.765625 -6.984375 C 6.265625 -7.628906 5.585938 -7.953125 4.734375 -7.953125 Z M 4.734375 -8.90625 C 5.953125 -8.90625 6.925781 -8.492188 7.65625 -7.671875 C 8.394531 -6.847656 8.765625 -5.742188 8.765625 -4.359375 C 8.765625 -2.984375 8.394531 -1.882812 7.65625 -1.0625 C 6.925781 -0.238281 5.953125 0.171875 4.734375 0.171875 C 3.503906 0.171875 2.519531 -0.238281 1.78125 -1.0625 C 1.039062 -1.882812 0.671875 -2.984375 0.671875 -4.359375 C 0.671875 -5.742188 1.039062 -6.847656 1.78125 -7.671875 C 2.519531 -8.492188 3.503906 -8.90625 4.734375 -8.90625 Z M 4.734375 -8.90625 "/>
</symbol>
</g>
</defs>
<g id="surface8925">
<rect x="0" y="0" width="300" height="300" style="fill:rgb(100%,100%,100%);fill-opacity:1;stroke:none;"/>
<path style="fill:none;stroke-width:1.2;stroke-linecap:butt;stroke-linejoin:miter;stroke:rgb(0%,80%,0%);stroke-opacity:1;stroke-miterlimit:10;" d="M 227.613281 199.046875 L 229.6875 183.59375 "/>
<path style="fill:none;stroke-width:1.2;stroke-linecap:butt;stroke-linejoin:miter;stroke:rgb(0%,0%,0%);stroke-opacity:1;stroke-miterlimit:10;" d="M 229.6875 183.59375 L 231.761719 168.136719 "/>
<path style=" stroke:none;fill-rule:nonzero;fill:rgb(100%,100%,100%);fill-opacity:1;" d="M 221.613281 192.046875 L 233.613281 192.046875 L 233.613281 206.046875 L 221.613281 206.046875 Z M 221.613281 192.046875 "/>
<g style="fill:rgb(0%,80%,0%);fill-opacity:1;">
  <use xlink:href="#glyph0-1" x="221.613281" y="203.185547"/>
  <use xlink:href="#glyph0-2" x="229.992188" y="203.185547"/>
</g>
<path style="fill:none;stroke-width:1.2;stroke-linecap:butt;stroke-linejoin:miter;stroke:rgb(0%,0%,0%);stroke-opacity:1;stroke-miterlimit:10;" d="M 231.761719 168.136719 L 207.066406 149.089844 "/>
<path style="fill:none;stroke-width:1.2;stroke-linecap:butt;stroke-linejoin:miter;stroke:rgb(0%,0%,0%);stroke-opacity:1;stroke-miterlimit:10;" d="M 233.773438 160.421875 L 214.015625 145.183594 "/>
<path style="fill:none;stroke-width:1.2;stroke-linecap:butt;stroke-linejoin:miter;stroke:rgb(0%,0%,0%);stroke-opacity:1;stroke-miterlimit:10;" d="M 260.601562 156.273438 L 231.761719 168.136719 "/>
<path style="fill:none;stroke-width:1.2;stroke-linecap:butt;stroke-linejoin:miter;stroke:rgb(0%,0%,0%);stroke-opacity:1;stroke-miterlimit:10;" d="M 207.066406 149.089844 L 211.214844 118.183594 "/>
<path style="fill:none;stroke-width:1.2;stroke-linecap:butt;stroke-linejoin:miter;stroke:rgb(0%,0%,0%);stroke-opacity:1;stroke-miterlimit:10;" d="M 211.214844 118.183594 L 198.867188 108.660156 "/>
<path style="fill:none;stroke-width:1.2;stroke-linecap:butt;stroke-linejoin:miter;stroke:rgb(0%,0%,100%);stroke-opacity:1;stroke-miterlimit:10;" d="M 198.867188 108.660156 L 186.519531 99.136719 "/>
<path style="fill:none;stroke-width:1.2;stroke-linecap:butt;stroke-linejoin:miter;stroke:rgb(0%,0%,0%);stroke-opacity:1;stroke-miterlimit:10;" d="M 211.214844 118.183594 L 240.054688 106.320312 "/>
<path style="fill:none;stroke-width:1.2;stroke-linecap:butt;stroke-linejoin:miter;stroke:rgb(0%,0%,0%);stroke-opacity:1;stroke-miterlimit:10;" d="M 216.890625 123.78125 L 239.960938 114.292969 "/>
<path style="fill:none;stroke-width:1.2;stroke-linecap:butt;stroke-linejoin:miter;stroke:rgb(0%,0%,100%);stroke-opacity:1;stroke-miterlimit:10;" d="M 186.519531 99.136719 L 172.097656 105.066406 "/>
<path style="fill:none;stroke-width:1.2;stroke-linecap:butt;stroke-linejoin:miter;stroke:rgb(0%,0%,0%);stroke-opacity:1;stroke-miterlimit:10;" d="M 172.097656 105.066406 L 157.675781 111 "/>
<path style=" stroke:none;fill-rule:nonzero;fill:rgb(100%,100%,100%);fill-opacity:1;" d="M 177.519531 92.136719 L 195.519531 92.136719 L 195.519531 106.136719 L 177.519531 106.136719 Z M 177.519531 92.136719 "/>
<g style="fill:rgb(0%,0%,100%);fill-opacity:1;">
  <use xlink:href="#glyph0-3" x="177.519531" y="103.275391"/>
  <use xlink:href="#glyph0-4" x="186.496094" y="103.275391"/>
</g>
<path style="fill:none;stroke-width:1.2;stroke-linecap:butt;stroke-linejoin:miter;stroke:rgb(0%,0%,0%);stroke-opacity:1;stroke-miterlimit:10;" d="M 157.675781 111 L 155.605469 126.453125 "/>
<path style="fill:none;stroke-width:1.2;stroke-linecap:butt;stroke-linejoin:miter;stroke:rgb(0%,0%,100%);stroke-opacity:1;stroke-miterlimit:10;" d="M 155.605469 126.453125 L 153.53125 141.90625 "/>
<path style="fill:none;stroke-width:1.2;stroke-linecap:butt;stroke-linejoin:miter;stroke:rgb(0%,0%,0%);stroke-opacity:1;stroke-miterlimit:10;" d="M 149.988281 113.113281 L 148.332031 125.476562 "/>
<path style="fill:none;stroke-width:1.2;stroke-linecap:butt;stroke-linejoin:miter;stroke:rgb(0%,0%,100%);stroke-opacity:1;stroke-miterlimit:10;" d="M 148.332031 125.476562 L 146.671875 137.839844 "/>
<path style="fill:none;stroke-width:1.2;stroke-linecap:butt;stroke-linejoin:miter;stroke:rgb(0%,0%,0%);stroke-opacity:1;stroke-miterlimit:10;" d="M 132.984375 91.953125 L 157.675781 111 "/>
<path style="fill:none;stroke-width:1.2;stroke-linecap:butt;stroke-linejoin:miter;stroke:rgb(0%,0%,100%);stroke-opacity:1;stroke-miterlimit:10;" d="M 153.53125 141.90625 L 139.109375 147.839844 "/>
<path style="fill:none;stroke-width:1.2;stroke-linecap:butt;stroke-linejoin:miter;stroke:rgb(0%,0%,0%);stroke-opacity:1;stroke-miterlimit:10;" d="M 139.109375 147.839844 L 124.6875 153.769531 "/>
<path style=" stroke:none;fill-rule:nonzero;fill:rgb(100%,100%,100%);fill-opacity:1;" d="M 149.53125 134.90625 L 158.53125 134.90625 L 158.53125 148.90625 L 149.53125 148.90625 Z M 149.53125 134.90625 "/>
<g style="fill:rgb(0%,0%,100%);fill-opacity:1;">
  <use xlink:href="#glyph0-3" x="149.53125" y="146.044922"/>
</g>
<path style="fill:none;stroke-width:1.2;stroke-linecap:butt;stroke-linejoin:miter;stroke:rgb(0%,0%,0%);stroke-opacity:1;stroke-miterlimit:10;" d="M 124.6875 153.769531 L 112.339844 144.246094 "/>
<path style="fill:none;stroke-width:1.2;stroke-linecap:butt;stroke-linejoin:miter;stroke:rgb(0%,0%,100%);stroke-opacity:1;stroke-miterlimit:10;" d="M 112.339844 144.246094 L 99.992188 134.726562 "/>
<path style="fill:none;stroke-width:1.2;stroke-linecap:butt;stroke-linejoin:miter;stroke:rgb(0%,0%,0%);stroke-opacity:1;stroke-miterlimit:10;" d="M 126.699219 146.054688 L 116.824219 138.4375 "/>
<path style="fill:none;stroke-width:1.2;stroke-linecap:butt;stroke-linejoin:miter;stroke:rgb(0%,0%,100%);stroke-opacity:1;stroke-miterlimit:10;" d="M 116.824219 138.4375 L 106.945312 130.820312 "/>
<path style="fill:none;stroke-width:1.2;stroke-linecap:butt;stroke-linejoin:miter;stroke:rgb(0%,0%,0%);stroke-opacity:1;stroke-miterlimit:10;" d="M 124.6875 153.769531 L 122.613281 169.226562 "/>
<path style="fill:none;stroke-width:1.2;stroke-linecap:butt;stroke-linejoin:miter;stroke:rgb(0%,0%,100%);stroke-opacity:1;stroke-miterlimit:10;" d="M 122.613281 169.226562 L 120.542969 184.679688 "/>
<path style="fill:none;stroke-width:1.2;stroke-linecap:butt;stroke-linejoin:miter;stroke:rgb(0%,0%,100%);stroke-opacity:1;stroke-miterlimit:10;" d="M 99.992188 134.726562 L 102.066406 119.269531 "/>
<path style="fill:none;stroke-width:1.2;stroke-linecap:butt;stroke-linejoin:miter;stroke:rgb(0%,0%,0%);stroke-opacity:1;stroke-miterlimit:10;" d="M 102.066406 119.269531 L 104.140625 103.816406 "/>
<path style=" stroke:none;fill-rule:nonzero;fill:rgb(100%,100%,100%);fill-opacity:1;" d="M 95.992188 127.726562 L 104.992188 127.726562 L 104.992188 141.726562 L 95.992188 141.726562 Z M 95.992188 127.726562 "/>
<g style="fill:rgb(0%,0%,100%);fill-opacity:1;">
  <use xlink:href="#glyph0-3" x="95.992188" y="138.865234"/>
</g>
<path style="fill:none;stroke-width:1.2;stroke-linecap:butt;stroke-linejoin:miter;stroke:rgb(0%,0%,0%);stroke-opacity:1;stroke-miterlimit:10;" d="M 104.140625 103.816406 L 94.042969 91.933594 "/>
<path style="fill:none;stroke-width:1.2;stroke-linecap:butt;stroke-linejoin:miter;stroke:rgb(0%,0%,100%);stroke-opacity:1;stroke-miterlimit:10;" d="M 94.042969 91.933594 L 83.945312 80.050781 "/>
<path style="fill:none;stroke-width:1.2;stroke-linecap:butt;stroke-linejoin:miter;stroke:rgb(0%,0%,0%);stroke-opacity:1;stroke-miterlimit:10;" d="M 132.984375 91.953125 L 104.140625 103.816406 "/>
<path style="fill:none;stroke-width:1.2;stroke-linecap:butt;stroke-linejoin:miter;stroke:rgb(0%,0%,0%);stroke-opacity:1;stroke-miterlimit:10;" d="M 132.890625 99.925781 L 109.816406 109.414062 "/>
<path style="fill:none;stroke-width:1.2;stroke-linecap:butt;stroke-linejoin:miter;stroke:rgb(0%,0%,100%);stroke-opacity:1;stroke-miterlimit:10;" d="M 83.945312 80.050781 L 92.125 66.777344 "/>
<path style="fill:none;stroke-width:1.2;stroke-linecap:butt;stroke-linejoin:miter;stroke:rgb(0%,0%,0%);stroke-opacity:1;stroke-miterlimit:10;" d="M 92.125 66.777344 L 100.308594 53.5 "/>
<path style="fill:none;stroke-width:1.2;stroke-linecap:butt;stroke-linejoin:miter;stroke:rgb(0%,0%,100%);stroke-opacity:1;stroke-miterlimit:10;" d="M 83.945312 80.050781 L 68.398438 81.238281 "/>
<path style="fill:none;stroke-width:1.2;stroke-linecap:butt;stroke-linejoin:miter;stroke:rgb(0%,0%,0%);stroke-opacity:1;stroke-miterlimit:10;" d="M 68.398438 81.238281 L 52.851562 82.421875 "/>
<path style=" stroke:none;fill-rule:nonzero;fill:rgb(100%,100%,100%);fill-opacity:1;" d="M 79.945312 73.050781 L 88.945312 73.050781 L 88.945312 87.050781 L 79.945312 87.050781 Z M 79.945312 73.050781 "/>
<g style="fill:rgb(0%,0%,100%);fill-opacity:1;">
  <use xlink:href="#glyph0-3" x="79.945312" y="84.189453"/>
</g>
<path style="fill:none;stroke-width:1.2;stroke-linecap:butt;stroke-linejoin:miter;stroke:rgb(0%,0%,0%);stroke-opacity:1;stroke-miterlimit:10;" d="M 100.308594 53.5 L 115.460938 57.179688 "/>
<path style="fill:none;stroke-width:1.2;stroke-linecap:butt;stroke-linejoin:miter;stroke:rgb(0%,0%,100%);stroke-opacity:1;stroke-miterlimit:10;" d="M 115.460938 57.179688 L 130.613281 60.855469 "/>
<path style="fill:none;stroke-width:1.2;stroke-linecap:butt;stroke-linejoin:miter;stroke:rgb(0%,0%,0%);stroke-opacity:1;stroke-miterlimit:10;" d="M 101.605469 61.367188 L 113.730469 64.308594 "/>
<path style="fill:none;stroke-width:1.2;stroke-linecap:butt;stroke-linejoin:miter;stroke:rgb(0%,0%,100%);stroke-opacity:1;stroke-miterlimit:10;" d="M 113.730469 64.308594 L 125.851562 67.253906 "/>
<path style="fill:none;stroke-width:1.2;stroke-linecap:butt;stroke-linejoin:miter;stroke:rgb(0%,0%,100%);stroke-opacity:1;stroke-miterlimit:10;" d="M 130.613281 60.855469 L 131.796875 76.40625 "/>
<path style="fill:none;stroke-width:1.2;stroke-linecap:butt;stroke-linejoin:miter;stroke:rgb(0%,0%,0%);stroke-opacity:1;stroke-miterlimit:10;" d="M 131.796875 76.40625 L 132.984375 91.953125 "/>
<path style=" stroke:none;fill-rule:nonzero;fill:rgb(100%,100%,100%);fill-opacity:1;" d="M 126.613281 53.855469 L 135.613281 53.855469 L 135.613281 67.855469 L 126.613281 67.855469 Z M 126.613281 53.855469 "/>
<g style="fill:rgb(0%,0%,100%);fill-opacity:1;">
  <use xlink:href="#glyph0-3" x="126.613281" y="64.994141"/>
</g>
<path style="fill:none;stroke-width:1.2;stroke-linecap:butt;stroke-linejoin:miter;stroke:rgb(0%,0%,0%);stroke-opacity:1;stroke-miterlimit:10;" d="M 52.851562 82.421875 L 35.25 56.675781 "/>
<path style="fill:none;stroke-width:1.2;stroke-linecap:butt;stroke-linejoin:miter;stroke:rgb(0%,0%,0%);stroke-opacity:1;stroke-miterlimit:10;" d="M 52.851562 82.421875 L 39.355469 110.535156 "/>
<path style="fill:none;stroke-width:1;stroke-linecap:butt;stroke-linejoin:miter;stroke:rgb(0%,0%,0%);stroke-opacity:1;stroke-miterlimit:10;" d="M 91.699219 196.542969 L 91.699219 196.542969 M 94.628906 195.902344 L 94.234375 194.9375 M 97.5625 195.261719 L 96.765625 193.332031 M 100.492188 194.617188 L 99.300781 191.726562 M 103.421875 193.976562 L 101.835938 190.121094 M 106.351562 193.335938 L 104.371094 188.511719 M 109.28125 192.691406 L 106.902344 186.90625 M 112.214844 192.050781 L 109.4375 185.300781 M 115.144531 191.410156 L 111.972656 183.695312 M 118.074219 190.769531 L 114.503906 182.089844 M 121.003906 190.125 L 117.039062 180.484375 M 122.636719 189.769531 L 118.449219 179.589844 "/>
<path style=" stroke:none;fill-rule:nonzero;fill:rgb(100%,100%,100%);fill-opacity:1;" d="M 111.542969 177.679688 L 129.542969 177.679688 L 129.542969 191.679688 L 111.542969 191.679688 Z M 111.542969 177.679688 "/>
<g style="fill:rgb(0%,0%,100%);fill-opacity:1;">
  <use xlink:href="#glyph0-3" x="111.542969" y="188.818359"/>
  <use xlink:href="#glyph0-4" x="120.519531" y="188.818359"/>
</g>
<path style="fill:none;stroke-width:1.2;stroke-linecap:butt;stroke-linejoin:miter;stroke:rgb(0%,0%,0%);stroke-opacity:1;stroke-miterlimit:10;" d="M 91.699219 196.542969 L 87.550781 227.453125 "/>
<path style="fill:none;stroke-width:1.2;stroke-linecap:butt;stroke-linejoin:miter;stroke:rgb(0%,0%,0%);stroke-opacity:1;stroke-miterlimit:10;" d="M 91.699219 196.542969 L 67.003906 177.496094 "/>
<path style="fill:none;stroke-width:1.2;stroke-linecap:butt;stroke-linejoin:miter;stroke:rgb(0%,0%,0%);stroke-opacity:1;stroke-miterlimit:10;" d="M 87.550781 227.453125 L 58.710938 239.316406 "/>
<path style="fill:none;stroke-width:1.2;stroke-linecap:butt;stroke-linejoin:miter;stroke:rgb(0%,0%,0%);stroke-opacity:1;stroke-miterlimit:10;" d="M 87.550781 227.453125 L 112.246094 246.5 "/>
<path style="fill:none;stroke-width:1.2;stroke-linecap:butt;stroke-linejoin:miter;stroke:rgb(0%,0%,0%);stroke-opacity:1;stroke-miterlimit:10;" d="M 67.003906 177.496094 L 52.585938 183.429688 "/>
<path style="fill:none;stroke-width:1.2;stroke-linecap:butt;stroke-linejoin:miter;stroke:rgb(100%,0%,0%);stroke-opacity:1;stroke-miterlimit:10;" d="M 52.585938 183.429688 L 38.164062 189.359375 "/>
<path style=" stroke:none;fill-rule:nonzero;fill:rgb(100%,100%,100%);fill-opacity:1;" d="M 19.164062 182.359375 L 38.164062 182.359375 L 38.164062 196.359375 L 19.164062 196.359375 Z M 19.164062 182.359375 "/>
<g style="fill:rgb(100%,0%,0%);fill-opacity:1;">
  <use xlink:href="#glyph0-4" x="19.164062" y="193.498047"/>
  <use xlink:href="#glyph0-5" x="28.1875" y="193.498047"/>
</g>
<path style="fill:none;stroke-width:1.2;stroke-linecap:butt;stroke-linejoin:miter;stroke:rgb(0%,0%,0%);stroke-opacity:1;stroke-miterlimit:10;" d="M 240.054688 106.320312 L 264.75 125.363281 "/>
<path style="fill:none;stroke-width:1.2;stroke-linecap:butt;stroke-linejoin:miter;stroke:rgb(0%,0%,0%);stroke-opacity:1;stroke-miterlimit:10;" d="M 264.75 125.363281 L 260.601562 156.273438 "/>
<path style="fill:none;stroke-width:1.2;stroke-linecap:butt;stroke-linejoin:miter;stroke:rgb(0%,0%,0%);stroke-opacity:1;stroke-miterlimit:10;" d="M 257.0625 127.480469 L 253.746094 152.207031 "/>
</g>
</svg>

<svg xmlns="http://www.w3.org/2000/svg" xmlns:xlink="http://www.w3.org/1999/xlink" width="300pt" height="300pt" viewBox="0 0 300 300"><defs><symbol overflow="visible"><path d="M.594 2.125V-8.47h6V2.126zm.672-.672h4.671V-7.78h-4.67zm0 0"/></symbol><symbol overflow="visible" id="a"><path d="M7.734-8.078v1.25c-.406-.375-.836-.65-1.28-.828-.45-.188-.93-.282-1.438-.282-1 0-1.766.31-2.297.922-.533.618-.798 1.5-.798 2.657 0 1.15.266 2.028.797 2.64.53.618 1.296.923 2.296.923.507 0 .988-.094 1.437-.28.445-.19.875-.462 1.28-.83V-.67c-.417.28-.858.496-1.327.64-.46.134-.945.204-1.453.204-1.336 0-2.383-.406-3.14-1.22-.762-.81-1.14-1.913-1.14-3.31 0-1.408.378-2.517 1.14-3.33.757-.812 1.804-1.218 3.14-1.218.52 0 1.008.074 1.47.22.468.135.905.338 1.31.608zm0 0"/></symbol><symbol overflow="visible" id="b"><path d="M1.125-9.125h1.078V0H1.125zm0 0"/></symbol><symbol overflow="visible" id="c"><path d="M1.172-8.75h1.594l3.89 7.313V-8.75h1.14V0H6.204L2.328-7.313V0H1.172zm0 0"/></symbol><symbol overflow="visible" id="d"><path d="M1.172-8.75H2.36v3.594h4.296V-8.75h1.188V0H6.656v-4.172H2.36V0H1.17zm0 0"/></symbol><symbol overflow="visible" id="e"><path d="M4.734-7.953c-.867 0-1.554.324-2.062.97-.5.635-.75 1.51-.75 2.624 0 1.094.25 1.965.75 2.61.508.637 1.195.953 2.062.953.852 0 1.532-.316 2.032-.953.507-.645.765-1.516.765-2.61 0-1.113-.257-1.988-.764-2.624-.5-.645-1.18-.97-2.032-.97zm0-.953c1.22 0 2.192.414 2.922 1.234.74.824 1.11 1.93 1.11 3.313 0 1.376-.37 2.477-1.11 3.298C6.926-.24 5.953.17 4.734.17c-1.23 0-2.214-.41-2.953-1.234C1.04-1.882.673-2.984.673-4.36c0-1.382.367-2.488 1.11-3.312.738-.82 1.722-1.234 2.952-1.234zm0 0"/></symbol></defs><g><path fill="#fff" d="M0 0h300v300H0z"/><path d="M227.613 199.047l2.075-15.453" stroke-width="1.2" stroke="#0c0" stroke-miterlimit="10" fill="none"/><path d="M229.688 183.594l2.074-15.457" stroke-width="1.2" stroke="#000" stroke-miterlimit="10" fill="none"/><path d="M221.613 192.047h12v14h-12zm0 0" fill="#fff"/><g fill="#0c0"><use xlink:href="#a" x="221.613" y="203.186"/><use xlink:href="#b" x="229.992" y="203.186"/></g><path d="M231.762 168.137l-24.696-19.047M233.773 160.422l-19.757-15.238M260.602 156.273l-28.84 11.864M207.066 149.09l4.15-30.906M211.215 118.184l-12.348-9.524" stroke-width="1.2" stroke="#000" stroke-miterlimit="10" fill="none"/><path d="M198.867 108.66l-12.347-9.523" stroke-width="1.2" stroke="#00f" stroke-miterlimit="10" fill="none"/><path d="M211.215 118.184l28.84-11.864M216.89 123.78l23.07-9.487" stroke-width="1.2" stroke="#000" stroke-miterlimit="10" fill="none"/><path d="M186.52 99.137l-14.422 5.93" stroke-width="1.2" stroke="#00f" stroke-miterlimit="10" fill="none"/><path d="M172.098 105.066L157.676 111" stroke-width="1.2" stroke="#000" stroke-miterlimit="10" fill="none"/><path d="M177.52 92.137h18v14h-18zm0 0" fill="#fff"/><g fill="#00f"><use xlink:href="#c" x="177.52" y="103.275"/><use xlink:href="#d" x="186.496" y="103.275"/></g><path d="M157.676 111l-2.07 15.453" stroke-width="1.2" stroke="#000" stroke-miterlimit="10" fill="none"/><path d="M155.605 126.453l-2.074 15.453" stroke-width="1.2" stroke="#00f" stroke-miterlimit="10" fill="none"/><path d="M149.988 113.113l-1.656 12.364" stroke-width="1.2" stroke="#000" stroke-miterlimit="10" fill="none"/><path d="M148.332 125.477l-1.66 12.363" stroke-width="1.2" stroke="#00f" stroke-miterlimit="10" fill="none"/><path d="M132.984 91.953L157.676 111" stroke-width="1.2" stroke="#000" stroke-miterlimit="10" fill="none"/><path d="M153.53 141.906l-14.42 5.934" stroke-width="1.2" stroke="#00f" stroke-miterlimit="10" fill="none"/><path d="M139.11 147.84l-14.423 5.93" stroke-width="1.2" stroke="#000" stroke-miterlimit="10" fill="none"/><path d="M149.53 134.906h9v14h-9zm0 0" fill="#fff"/><use xlink:href="#c" x="149.531" y="146.045" fill="#00f"/><path d="M124.688 153.77l-12.348-9.524" stroke-width="1.2" stroke="#000" stroke-miterlimit="10" fill="none"/><path d="M112.34 144.246l-12.348-9.52" stroke-width="1.2" stroke="#00f" stroke-miterlimit="10" fill="none"/><path d="M126.7 146.055l-9.876-7.618" stroke-width="1.2" stroke="#000" stroke-miterlimit="10" fill="none"/><path d="M116.824 138.438l-9.88-7.618" stroke-width="1.2" stroke="#00f" stroke-miterlimit="10" fill="none"/><path d="M124.688 153.77l-2.075 15.457" stroke-width="1.2" stroke="#000" stroke-miterlimit="10" fill="none"/><path d="M122.613 169.227l-2.07 15.453M99.992 134.727l2.074-15.457" stroke-width="1.2" stroke="#00f" stroke-miterlimit="10" fill="none"/><path d="M102.066 119.27l2.075-15.454" stroke-width="1.2" stroke="#000" stroke-miterlimit="10" fill="none"/><path d="M95.992 127.727h9v14h-9zm0 0" fill="#fff"/><use xlink:href="#c" x="95.992" y="138.865" fill="#00f"/><path d="M104.14 103.816L94.044 91.934" stroke-width="1.2" stroke="#000" stroke-miterlimit="10" fill="none"/><path d="M94.043 91.934L83.945 80.05" stroke-width="1.2" stroke="#00f" stroke-miterlimit="10" fill="none"/><path d="M132.984 91.953l-28.843 11.863M132.89 99.926l-23.074 9.488" stroke-width="1.2" stroke="#000" stroke-miterlimit="10" fill="none"/><path d="M83.945 80.05l8.18-13.273" stroke-width="1.2" stroke="#00f" stroke-miterlimit="10" fill="none"/><path d="M92.125 66.777L100.31 53.5" stroke-width="1.2" stroke="#000" stroke-miterlimit="10" fill="none"/><path d="M83.945 80.05L68.398 81.24" stroke-width="1.2" stroke="#00f" stroke-miterlimit="10" fill="none"/><path d="M68.398 81.238l-15.546 1.184" stroke-width="1.2" stroke="#000" stroke-miterlimit="10" fill="none"/><path d="M79.945 73.05h9v14h-9zm0 0" fill="#fff"/><use xlink:href="#c" x="79.945" y="84.189" fill="#00f"/><path d="M100.31 53.5l15.15 3.68" stroke-width="1.2" stroke="#000" stroke-miterlimit="10" fill="none"/><path d="M115.46 57.18l15.153 3.675" stroke-width="1.2" stroke="#00f" stroke-miterlimit="10" fill="none"/><path d="M101.605 61.367l12.125 2.942" stroke-width="1.2" stroke="#000" stroke-miterlimit="10" fill="none"/><path d="M113.73 64.31l12.122 2.944M130.613 60.855l1.184 15.55" stroke-width="1.2" stroke="#00f" stroke-miterlimit="10" fill="none"/><path d="M131.797 76.406l1.187 15.547" stroke-width="1.2" stroke="#000" stroke-miterlimit="10" fill="none"/><path d="M126.613 53.855h9v14h-9zm0 0" fill="#fff"/><use xlink:href="#c" x="126.613" y="64.994" fill="#00f"/><path d="M52.852 82.422L35.25 56.676M52.852 82.422l-13.497 28.113" stroke-width="1.2" stroke="#000" stroke-miterlimit="10" fill="none"/><path d="M91.7 196.543m2.93-.64l-.396-.965m3.33.324l-.798-1.93m3.726 1.285l-1.19-2.89m4.12 2.25l-1.586-3.856m4.516 3.216l-1.98-4.824m4.91 4.18l-2.38-5.786m5.313 5.145l-2.778-6.75m5.708 6.11l-3.172-7.715m6.1 7.075l-3.57-8.68m6.5 8.035l-3.964-9.64m5.597 9.285l-4.188-10.18" stroke="#000" stroke-miterlimit="10" fill="none"/><path d="M111.543 177.68h18v14h-18zm0 0" fill="#fff"/><g fill="#00f"><use xlink:href="#c" x="111.543" y="188.818"/><use xlink:href="#d" x="120.52" y="188.818"/></g><path d="M91.7 196.543l-4.15 30.91M91.7 196.543l-24.696-19.047M87.55 227.453l-28.84 11.863M87.55 227.453l24.696 19.047M67.004 177.496l-14.418 5.934" stroke-width="1.2" stroke="#000" stroke-miterlimit="10" fill="none"/><path d="M52.586 183.43l-14.422 5.93" stroke-width="1.2" stroke="#f00" stroke-miterlimit="10" fill="none"/><path d="M19.164 182.36h19v14h-19zm0 0" fill="#fff"/><g fill="#f00"><use xlink:href="#d" x="19.164" y="193.498"/><use xlink:href="#e" x="28.188" y="193.498"/></g><path d="M240.055 106.32l24.695 19.043M264.75 125.363l-4.148 30.91M257.063 127.48l-3.317 24.727" stroke-width="1.2" stroke="#000" stroke-miterlimit="10" fill="none"/></g></svg>
